packages/merlin-www-assets/imports/brides/icons/card-image-gallery.svg

<svg viewBox="0 0 16 16" xmlns="http://www.w3.org/2000/svg"><path d="m12 4h-11v11h11zm0-1h1v9h2v-11h-11v2zm-9 0v-3h1 11 1v12 1h-3v2 1h-13v-1-12h1z"/></svg>

<svg xmlns="http://www.w3.org/2000/svg" viewBox="0 0 16 16"><title>gallery</title>
  <path d="M12,4 L1,4 L1,15 L12,15 L12,4 Z M12,3 L13,3 L13,12 L15,12 L15,1 L4,1 L4,3 L12,3 Z M3,3 L3,0 L4,0 L15,0 L16,0 L16,12 L16,13 L13,13 L13,15 L13,16 L0,16 L0,15 L0,3 L1,3 L3,3 Z"/>
</svg>
